X: 1
T: Springlek efter Troskari Erik Persson
M: 3/4
L: 1/8
Z: 2007 John Chambers <jc@trillian.mit.edu>
S: printed MS of unknown origin, labelled 729 and 19
K: D
|: A2 a>g (3bgb | a2 (3~geg a>f | d2 (3~geg a>f | d>f e>c A2- \
|  A2 a>g (3bgb | a2 (3~geg a>f | d2 (3~geg a>f | (3ece d4 :|
|: A>c df/d/ e>c | A>c df/d/ e>c | A2 ~gf/g/ a>f | d>f e>c A2 \
|  A>c df/d/ e>c | A>c df/d/ e>c | A2 ~gf/g/ a>f | (3ece d4 :|
